!!!COM: Martinů, Bohuslav (Jan)
!!!OTL: Les madrigaux (Madrigals), Four Pieces for Oboe, Clarinet and Bassoon
!!!OMV: No. 1: Allegro moderato
!!!example: 508
!!!work: Mau-54
**kern	**dynam	**kern	**dynam	**kern	**dynam
*part3	*part3	*part2	*part2	*part1	*part1
*staff3	*	*staff2	*	*staff1	*
*I"Bassoon	*	*I"Clarinet in Bb	*	*I"Oboe	*
*I'Bsn.	*	*I'Cl.	*	*I'Ob.	*
*clefF4	*	*clefG2	*	*clefG2	*
*k[]	*	*k[]	*	*k[]	*
*C:	*	*C:	*	*C:	*
*M3/8	*	*M3/8	*	*M3/8	*
*MM121	*	*MM121	*	*MM121	*
=1	=1	=1	=1	=1	=1
8r	.	4.r	.	(16b-XLL	p
.	.	.	.	16fJ	.
8BB-X'L	p p	.	.	8b-')	.
8F'J	.	.	.	(16b-L	<
.	.	.	.	16fJJ	[[
=2	=2	=2	=2	=2	=2
(16F#XLL	<	4.r	.	16b-XLL	>
16GJ)	.	.	.	16eJ	.
8A-X	.	.	.	8b-)	]
(16EL	[	.	.	(24b-L	.
.	.	.	.	24a	.
16G#XJJ	.	.	.	.	.
.	.	.	.	24gJJ	.
=3	=3	=3	=3	=3	=3
16GLL	<	(16d-XLL	p	8b-X'L)	.
16An	.	16f	.	.	.
16B-X	.	16a-X	.	(16b-L	<
16cJ	.	16b-X	<	16f	.
8c#X'J)	[	16cc#X	.	16b-	[ >
.	.	16eeJJ	.	16eJJ	.
=4	=4	=4	=4	=4	=4
(16dLL	mf	8ff'L)	[	8b-XL)	]
16Bn	.	.	.	.	.
16c#X	<	(16ffL	mf	(16b-L	<
16G#X	.	16ddJ	.	16e-X	.
16d	.	8ff'J)	.	16b-	.
16BJJ	[[	.	.	16ccJJ	[[
=5	=5	=5	=5	=5	=5
8c#X'L)	.	(16ffLL	.	16gLL	.
.	.	16cc	.	16b-XJ	.
(16dL	.	16ff	.	8f')	<
16B	.	16ccJ	<	.	.
16c#	<	8ff'J)	[[	(16b-L	.
16G#XJJ	.	.	.	16ddJJ	[[
=6	=6	=6	=6	=6	=6
16dLL	.	(16ffLL	.	8f'L)	mf
16B-XJ	.	16ddJ	.	.	.
8cn')	[	8ff')	.	(16b-XL	.
.	.	.	.	16bnJ	<
.	.	.	.	(8qcc/	[
(16dL	mf	(16ee-XL	mf	[8bb-X^J)	.
16GJJ	.	16b-XJJ	.	.	.
=7	=7	=7	=7	=7	=7
16DLL	.	16ddLL	.	8bb-L]	.
16GGJJ	.	16bn	.	.	.
[4EE-X)	.	16cc#X	.	(8b-X	<
.	.	16g#X)	.	.	.
.	.	.	.	(8qcc/	[
.	.	(16ee-X	.	[8bb-XJ)	.
.	.	16b-XJJ	.	.	.
=8	=8	=8	=8	=8	=8
16EE-LL]	.	16ddLL	.	8bb-L]	.
(16D	<	16bn	.	.	.
16B-X)	[	16cc#X	<	8b-X'	<
16D'J	>	16g#XJ	.	.	.
.	.	.	.	(8qcc/	[
[8EE-XJ	]	8cc#'J)	[	[8bb-XJ)	.
=	=	=	=	=	=
*-	*-	*-	*-	*-	*-
!!!system-decoration: [(s1,s2,s3)]
!!!CDT: 1890/12/08-1959/08/28
!!!CBL: Polička, Bohemia
!!!CDL: Liestal, Switzerland
!!!CNT: Czech
!!!AGN: Instrumental; Chamber
!!!MCN:
!!!MDT: 1905/04/21
!!!MGN: Au Trio d'Anches de Paris
!!!MLC: Paris, France
!!!MPD: 1938
!!!MPN:
!!!ODT: 1937
!!!PDT: 1951
!!!excerpt-start-measure: 1
!!!excerpt-end-measure: 8
!!!excerpt-start-time: 0:00
!!!excerpt-end-time: 0:10
!!!EEV: 2020/01/22
!!!ONB: Converted from MusicXML on 2020/01/22
